X: 1451
T: Frank Forde's 2nd Jig
B: australian traditional tunes wiki
M:6/8
L:1/8
R: Jig
Q: 3/8=100
K:G
V:1 
D|:"G"GFG GFG|"D7"ABA AGF|"G"GBd dcB|"C"cBc"D7"A2F|
"G"GFG "C"EFG|"A7"EAG "D7"FED|"C"EFE "D7"DEF|1"G"GFGG2D:|2"G"GFGG2d||
|:"G"BGB dBd|"C"ece "G"dBG|BGB dBd|"C"cBc"D7"A2d|
"G"BGB dBd|"C"cBc "D7"AFD|"C"EFG "D7"DGF|1"G"GFGG2d:|2"G"GFGG2D||
|:"G"G2B dcB|"D7"Adc "G"BAG|"C"cBc "A7"EAG|"D7"FEF D2E/F/|
"G"GFG BAG|"D7"Adc "G"BAG|"C"cBc "D7"DEF|1"G"GFGG2D:|2"G"GFGG3||
% abcbook-tune_id 6342d53a1ed431654b2248b3


% abcbook-boost 0
% abcbook-tablature 
% abcbook-transpose 
% abcbook-lastupdated 1665324365707
% abcbook-soundfonts 
% abcbook-repeats 1
% NFF Book 2010

